X:1
T:My God, I am thine; what a comfort divine
T:Joel Thorne
T:p377, Thomas Hawkes, A Collection of Tunes, Watchet: (1833)
T:This edition by Edmund Gooch released into the public domain, November 2011.
T:My God, I am thine; what a comfort divine
T:Weymouth
C:Joel Thorne
Z:p377, Thomas Hawkes,
Z:A Collection of Tunes,
Z:Watchet: (1833)
%%score [ 1 2 3 4 ]
L:1/8
M:3/4
K:G
V:1 treble nm="Soprano" snm="S."
V:2 treble nm="Alto" snm="A."
V:3 treble-8 transpose=-12 nm="Tenor" snm="T."
V:4 bass nm="Bass" snm="B."
V:1
 (d>c) | B2 c2 d2 | (e2 d2) c>c | B3 c A2 | (B2 c2) (d>d) | e2 (ef) (ge) | (d>c) (Bc) d2 | %7
w: Yet _|on- ward I|haste _ to the|hea- ven- ly|feast: _ That, _|that is _ the _|ful- * ness, _ but|
w: My _|God, I am|thine; _ what a|com- fort di-|vine, _ What a|bless- ing _ to _|know _ that _ my|
w: True _|plea- sures a-|bound _ in the|rap- tu- rous|sound, _ And who-|ev- er _ hath _|found _ it _ hath|
 (AB) F2 E2 | D4 (B>c) | d2 (cB) (AG) | (G2 F2) (G>G) | e2 d2 c2 | B4 (B>B) | e2 e2 f2 | g2 d2 e2 | %15
w: this _ is the|taste! And _|this I _ shall _|prove, _ till with|joy I re-|move, To the|hea- ven of|hea- vens, in|
w: Je- * sus is|mine! In the|hea- ven- * ly _|Lamb _ thrice _|hap- py I|am, And my|heart it doth|dance at the|
w: pa- * ra- dise|found; My _|Je- sus _ to _|know, _ and _|feel his blood|flow, ’Tis _|life ev- er-|last- ing, ’tis|
 (d>c) B2 A2 | G4 |] %17
w: Je- * sus- ’s|love.|
w: sound _ of his|name.|
w: hea- * ven be-|low.|
V:2
 D2 | D2 D2 D2 | (D G3) G>G | G3 G (DA) | G4 (G>G) | G2 G2 G2 | G2 D2 D2 | D2 D2 ^C2 | D4 (D>D) | %9
w: Yet|on- ward I|haste _ to the|hea- ven- ly _|feast: That, _|that is the|ful- ness, but|this is the|taste! And _|
w: My|God, I am|thine; _ what a|com- fort di- *|vine, What a|bless- ing to|know that my|Je- sus is|mine! In the|
w: True|plea- sures a-|bound _ in the|rap- tu- rous _|sound, And who-|ev- er hath|found it hath|pa- ra- dise|found; My _|
 D2 D2 E2 | D4 (D>D) | G2 G2 F2 | G4 (G>G) | G2 A2 A2 | (B>A) G2 G2 | G2 G2 F2 | G4 |] %17
w: this I shall|prove, till with|joy I re-|move, To the|hea- ven of|hea- * vens, in|Je- sus- ’s|love.|
w: hea- ven- ly|Lamb thrice _|hap- py I|am, And my|heart it doth|dance _ at the|sound of his|name.|
w: Je- sus to|know, and _|feel his blood|flow, ’Tis _|life ev- er-|last- * ing, ’tis|hea- ven be-|low.|
V:3
 (B>A) | G2 A2 B2 | (c2 d2) e>e | d3 c d2 | d4 (d>d) | c2 c2 c2 | (B>A) (GA) B2 | d2 A2 A2 | %8
w: Yet _|on- ward I|haste _ to the|hea- ven- ly|feast: That, _|that is the|ful- * ness, _ but|this is the|
w: My _|God, I am|thine; _ what a|com- fort di-|vine, What a|bless- ing to|know _ that _ my|Je- sus is|
w: True _|plea- sures a-|bound _ in the|rap- tu- rous|sound, And who-|ev- er hath|found _ it _ hath|pa- ra- dise|
 A4 (G>A) | B2 (AG) (cB) | (B2 A2) (G>G) | (Ac) B2 A2 | G4 (d>d) | c2 G2 d2 | (d>c) B2 c2 | %15
w: taste! And _|this I _ shall _|prove, _ till with|joy _ I re-|move, To the|hea- ven of|hea- * vens, in|
w: mine! In the|hea- ven- * ly _|Lamb _ thrice _|hap- * py I|am, And my|heart it doth|dance _ at the|
w: found; My _|Je- sus _ to _|know, _ and _|feel _ his blood|flow, ’Tis _|life ev- er-|last- * ing, ’tis|
 (d>e) d2 c2 | B4 |] %17
w: Je- * sus- ’s|love.|
w: sound _ of his|name.|
w: hea- * ven be-|low.|
V:4
 (G,>F,) | G,2 G,2 G,2 | (C,2 B,,2) C,>C, | D,3 E, F,2 | (G,2 A,2) (B,>B,) | C2 (C,D,) (E,F,) | %6
w: Yet _|on- ward I|haste _ to the|hea- ven- ly|feast: _ That, _|that is _ the _|
w: My _|God, I am|thine; _ what a|com- fort di-|vine, _ What a|bless- ing _ to _|
w: True _|plea- sures a-|bound _ in the|rap- tu- rous|sound, _ And who-|ev- er _ hath _|
 G,2 G,2 G,2 | (F,G,) A,2 A,,2 | D,4 (G,>G,) | G,2 G,2 C,2 | D,4 (B,,>B,,) | %11
w: ful- ness, but|this _ is the|taste! And _|this I shall|prove, till with|
w: know that my|Je- * sus is|mine! In the|hea- ven- ly|Lamb thrice _|
w: found it hath|pa- * ra- dise|found; My _|Je- sus to|know, and _|
"^Notes:The order of staves in the source is Alto - Tenor - Soprano - Bass, with the alto part notated in the treble clefan octave above sounding pitch.No text is underlaid in the source, although Hymns 205 and 558 (of the Collection of Hymns for the Use ofthe People called Methodists) are specified. The present text is that of Hymn 205: the alternative text,Hymn 558, is 'Come, Lord, from above, the mountains remove‘.Dotted slurs indicate pairs of notes which should be sung separately in some verses but not others, asshown by the underlay, to accommodate the metrical irregularities of the text." C,2 D,2 D,2 | %12
w: joy I re-|
w: hap- py I|
w: feel his blood|
 G,4 (G,>G,) | C,2 C,2 D,2 | G,2 G,2 C,2 | (B,,>C,) D,2 D,2 | G,,4 |] %17
w: move, To the|hea- ven of|hea- vens, in|Je- * sus- ’s|love.|
w: am, And my|heart it doth|dance at the|sound _ of his|name.|
w: flow, ’Tis _|life ev- er-|last- ing, ’tis|hea- * ven be-|low.|

